Yaru++/apps/scalable/goa-account-msn.svg

<svg height="256" width="256" xmlns="http://www.w3.org/2000/svg" xmlns:xlink="http://www.w3.org/1999/xlink">
  <linearGradient id="linearGradient4358" gradientUnits="userSpaceOnUse" x1="88" x2="488" y1="88" y2="488">
    <stop offset="0" stop-opacity=".588235"/>
    <stop offset="1" stop-opacity=".205556"/>
  </linearGradient>
  <filter id="filter4380" color-interpolation-filters="sRGB" height="1.088" width="1.106" x="-.05" y="-.04">
    <feGaussianBlur stdDeviation="8.48"/>
  </filter>
  <filter id="filter4346" color-interpolation-filters="sRGB" height="1.022" width="1.026" x="-.01" y="-.01">
    <feGaussianBlur stdDeviation="2.12"/>
  </filter>
  <path d="m141.84323 74c-70.59344 0-78.18921 7.250835-77.84323 77.98706v146.01294 146.01294c-.34598 70.73623 7.24979 77.98706 77.84323 77.98706h292.31354c70.59344 0 79.78033-7.27652 77.84323-77.98706v-146.01294-146.01294c0-70.737067-7.24979-77.98706-77.84323-77.98706z" filter="url(#filter4346)" opacity=".1" transform="matrix(.5 0 0 .5 -16.116488 -20.825537)"/>
  <path d="m141.84323 74c-70.59344 0-78.18921 7.250835-77.84323 77.98706v146.01294 146.01294c-.34598 70.73623 7.24979 77.98706 77.84323 77.98706h292.31354c70.59344 0 79.78033-7.27652 77.84323-77.98706v-146.01294-146.01294c0-70.737067-7.24979-77.98706-77.84323-77.98706z" fill="url(#linearGradient4358)" filter="url(#filter4380)" opacity=".3" transform="matrix(.5 0 0 .5 -16.116488 -20.825235)"/>
  <path d="m53.695112 13.174464c-36.098811 0-39.983002 3.690159-39.80608 39.689839v74.310167 74.31016c-.176922 35.99969 3.707269 39.68984 39.80608 39.68984h148.387318c36.09881 0 40.77464-3.70276 39.80608-39.68984v-74.31016-74.310167c0-36.00011-3.70727-39.689839-39.80608-39.689839z" opacity=".2"/>
  <path d="m200.95649 15.174464c35.29673 0 39.09461 3.625419 38.92162 38.993529v73.006477 73.00647c.17299 35.36812-3.62489 38.99353-38.92162 38.99353h-146.156758c-35.296716 0-38.921616-3.625-38.921616-38.99353v-73.00647-73.006477c0-35.36853 3.6249-38.993529 38.921616-38.993529z" fill="#fff"/>
  <path d="m54.805392 15.174464c-35.296728 0-39.09487 3.626029-38.92188 38.994139v2c-.17299-35.36811 3.625152-38.99414 38.92188-38.99414h146.156238c35.29673 0 38.92188 3.62561 38.92188 38.99414v-2c0-35.36853-3.62515-38.994139-38.92188-38.994139z" fill="#fff" opacity=".3"/>
  <path d="m54.810792 239.17447c-35.296731 0-39.094875-3.62603-38.921885-38.99414v-2c-.17299 35.36811 3.625154 38.99414 38.921885 38.99414h146.156238c35.29673 0 38.92188-3.62561 38.92188-38.99414v2c0 35.36853-3.62515 38.99414-38.92188 38.99414z" opacity=".2"/>
  <g>
    <path d="m127.18555 15.173828h-72.386722c-4.412089 0-8.327563.056409-11.804687.22461-3.477125.1682-6.514298.448292-9.166016.894531-2.651718.446238-4.9196 1.060416-6.855469 1.894531-.967934.417057-1.852595.889207-2.662109 1.423828-.809515.534621-1.542242 1.130961-2.207031 1.796875-.66479.665915-1.261163 1.4-1.794922 2.210938-.533759.810937-1.005452 1.698278-1.421875 2.667968-.832847 1.939382-1.444952 4.210416-1.890625 6.867188-.445673 2.656771-.724521 5.699594-.892578 9.183594-.168058 3.484-.22461 7.409011-.22461 11.830078v71.646481h111.306644z" fill="#f76363"/>
    <path d="m239.87891 125.81445v-71.646481c.02162-4.421014-.01955-8.346107-.17579-11.830078-.15623-3.483972-.42752-6.526832-.86914-9.183594-.44161-2.656762-1.05413-4.927802-1.88867-6.867188-.41727-.969692-.89012-1.857026-1.42578-2.667968-.53566-.810943-1.13329-1.545017-1.80078-2.210938s-1.40403-1.262246-2.2168-1.796875c-.81276-.534629-1.70234-1.006762-2.67383-1.423828-1.94296-.834132-4.21652-1.448276-6.875-1.894531-2.65847-.446255-5.70207-.726321-9.18359-.894531-3.48152-.168211-7.40041-.22461-11.8125-.22461h-73.77148v110.640622z" fill="#76c22b"/>
    <path d="m15.878906 125.81445v1.35938 73.00781c0 4.42107.056552 8.34608.22461 11.83008.168057 3.484.446905 6.52682.892578 9.18359s1.057778 4.92781 1.890625 6.86719c.416423.96969.888116 1.85508 1.421875 2.66602.533759.81093 1.130132 1.54697 1.794922 2.21289.664789.66591 1.397516 1.26225 2.207031 1.79687.809514.53462 1.694175 1.00677 2.662109 1.42383 1.935869.83411 4.203751 1.44634 6.855469 1.89258 1.192792.20072 2.769343.26399 4.123047.40234h89.234378v-112.64258z" fill="#5884f4"/>
    <path d="m217.82227 238.45703c1.35634-.13836 2.93505-.20161 4.13085-.40234 2.65848-.44626 4.93204-1.05845 6.875-1.89258.97149-.41707 1.86107-.8892 2.67383-1.42383.81277-.53463 1.54931-1.13095 2.2168-1.79687s1.26512-1.40195 1.80078-2.21289c.53566-.81095 1.00851-1.69828 1.42578-2.66797.83454-1.93939 1.44706-4.20848 1.88867-6.86524.44162-2.65676.71291-5.69962.86914-9.18359.15624-3.48397.19741-7.40906.17579-11.83008v-73.00781-1.35938h-112.69336v112.64258z" fill="#fdc92b"/>
  </g>
</svg>

<svg xmlns="http://www.w3.org/2000/svg" xmlns:xlink="http://www.w3.org/1999/xlink" width="256" height="256" version="1.0">
 <defs>
  <linearGradient id="a">
   <stop id="stop2" offset="0" stop-color="#68676b"/>
   <stop id="stop4" offset=".8" stop-color="#424048"/>
   <stop id="stop6" offset="1" stop-color="#241f31"/>
  </linearGradient>
  <radialGradient id="d" cx="279.422" cy="446.483" r="224" fx="279.422" fy="446.483" gradientTransform="matrix(1.34416,6e-4,-6.2e-4,1.38763,-121.22,-718.103)" gradientUnits="userSpaceOnUse" xlink:href="#a"/>
  <linearGradient id="e" x1="43.844" x2="-60" y1="234" y2="234" gradientTransform="matrix(1.0015,0,0,0.99993,72.09,56.015)" gradientUnits="userSpaceOnUse" xlink:href="#b"/>
  <linearGradient id="b">
   <stop id="stop11" offset="0" stop-color="#d5d3cf"/>
   <stop id="stop13" offset=".038" stop-color="#e3e2df"/>
   <stop id="stop15" offset=".077" stop-color="#c0bfbc"/>
   <stop id="stop17" offset=".923" stop-color="#c0bfbc"/>
   <stop id="stop19" offset=".962" stop-color="#e3e2df"/>
   <stop id="stop21" offset="1" stop-color="#d5d3cf"/>
  </linearGradient>
  <linearGradient id="linearGradient1007" x1="160.305" x2="161.33" y1="240.139" y2="135.579" gradientTransform="matrix(0.54625232,0,0,0.54625232,-6.0941965,-68.413544)" gradientUnits="userSpaceOnUse" xlink:href="#linearGradient1018"/>
  <linearGradient id="linearGradient1018">
   <stop id="stop2-3" offset="0" style="stop-color:#37a6e6"/>
   <stop id="stop4-6" offset="1" style="stop-color:#1a7fd4"/>
  </linearGradient>
  <clipPath id="clipPath1082-3" clipPathUnits="userSpaceOnUse">
   <path d="M 361.9375,-212 C 507.2348,-212 528,-191.28677 528,-46.125 V 70.125 C 528,215.28618 507.2348,236 361.9375,236 H 214.0625 C 68.7652,236 48,215.28618 48,70.125 V -46.125 C 48,-191.28677 68.7652,-212 214.0625,-212 Z" style="fill:#8c59d9"/>
  </clipPath>
  <linearGradient id="linearGradient4358" x1="88" x2="488" y1="88" y2="488" gradientUnits="userSpaceOnUse" xlink:href="#linearGradient4360"/>
  <linearGradient id="linearGradient4360">
   <stop id="stop4362" offset="0" style="stop-color:#000000;stop-opacity:0.58823532"/>
   <stop id="stop4366" offset="1" style="stop-color:#000000;stop-opacity:0.20555556"/>
  </linearGradient>
  <filter style="color-interpolation-filters:sRGB" id="filter4380" width="1.106" height="1.088" x="-.05" y="-.04">
   <feGaussianBlur id="feGaussianBlur4382" stdDeviation="8.48"/>
  </filter>
  <filter style="color-interpolation-filters:sRGB" id="filter4346" width="1.026" height="1.022" x="-.01" y="-.01">
   <feGaussianBlur id="feGaussianBlur4348" stdDeviation="2.12"/>
  </filter>
 </defs>
 <path style="opacity:0.1;filter:url(#filter4346)" d="M 141.84323,74 C 71.24979,74 63.65402,81.250835 64,151.98706 V 298 444.01294 C 63.65402,514.74917 71.24979,522 141.84323,522 H 434.15677 C 504.75021,522 513.9371,514.72348 512,444.01294 V 298 151.98706 C 512,81.249993 504.75021,74 434.15677,74 Z" transform="matrix(0.5,0,0,0.5,-16.116488,-20.825537)"/>
 <path d="M 141.84323,74 C 71.24979,74 63.65402,81.250835 64,151.98706 V 298 444.01294 C 63.65402,514.74917 71.24979,522 141.84323,522 H 434.15677 C 504.75021,522 513.9371,514.72348 512,444.01294 V 298 151.98706 C 512,81.249993 504.75021,74 434.15677,74 Z" transform="matrix(0.5,0,0,0.5,-16.116488,-20.825235)" style="opacity:0.3;fill:url(#linearGradient4358);filter:url(#filter4380)"/>
 <path style="opacity:0.2" d="m 53.695112,13.174464 c -36.098811,0 -39.983002,3.690159 -39.80608,39.689839 v 74.310167 74.31016 c -0.176922,35.99969 3.707269,39.68984 39.80608,39.68984 H 202.08243 c 36.09881,0 40.77464,-3.70276 39.80608,-39.68984 V 127.17447 52.864303 c 0,-36.00011 -3.70727,-39.689839 -39.80608,-39.689839 z"/>
 <path style="fill:#ffffff" d="m 200.95649,15.174464 c 35.29673,0 39.09461,3.625419 38.92162,38.993529 v 73.006477 73.00647 c 0.17299,35.36812 -3.62489,38.99353 -38.92162,38.99353 H 54.799732 c -35.296716,0 -38.921616,-3.625 -38.921616,-38.99353 V 127.17447 54.167993 c 0,-35.36853 3.6249,-38.993529 38.921616,-38.993529 z"/>
 <path style="opacity:0.3;fill:#ffffff" d="m 54.805392,15.174464 c -35.296728,0 -39.09487,3.626029 -38.92188,38.994139 v 2 c -0.17299,-35.36811 3.625152,-38.99414 38.92188,-38.99414 H 200.96163 c 35.29673,0 38.92188,3.62561 38.92188,38.99414 v -2 c 0,-35.36853 -3.62515,-38.994139 -38.92188,-38.994139 z"/>
 <path style="opacity:0.2" d="m 54.810792,239.17447 c -35.296731,0 -39.094875,-3.62603 -38.921885,-38.99414 v -2 c -0.17299,35.36811 3.625154,38.99414 38.921885,38.99414 H 200.96703 c 35.29673,0 38.92188,-3.62561 38.92188,-38.99414 v 2 c 0,35.36853 -3.62515,38.99414 -38.92188,38.99414 z"/>
 <g transform="translate(-197.42373,-133.57627)">
  <path style="fill:#f76363" d="M 127.18555 15.173828 L 54.798828 15.173828 C 50.386739 15.173828 46.471265 15.230237 42.994141 15.398438 C 39.517016 15.566638 36.479843 15.84673 33.828125 16.292969 C 31.176407 16.739207 28.908525 17.353385 26.972656 18.1875 C 26.004722 18.604557 25.120061 19.076707 24.310547 19.611328 C 23.501032 20.145949 22.768305 20.742289 22.103516 21.408203 C 21.438726 22.074118 20.842353 22.808203 20.308594 23.619141 C 19.774835 24.430078 19.303142 25.317419 18.886719 26.287109 C 18.053872 28.226491 17.441767 30.497525 16.996094 33.154297 C 16.550421 35.811068 16.271573 38.853891 16.103516 42.337891 C 15.935458 45.821891 15.878906 49.746902 15.878906 54.167969 L 15.878906 125.81445 L 127.18555 125.81445 L 127.18555 15.173828 z" transform="translate(197.42373,133.57627)"/>
  <path style="fill:#76c22b" d="M 239.87891 125.81445 L 239.87891 54.167969 C 239.90053 49.746955 239.85936 45.821862 239.70312 42.337891 C 239.54689 38.853919 239.2756 35.811059 238.83398 33.154297 C 238.39237 30.497535 237.77985 28.226495 236.94531 26.287109 C 236.52804 25.317417 236.05519 24.430083 235.51953 23.619141 C 234.98387 22.808198 234.38624 22.074124 233.71875 21.408203 C 233.05126 20.742282 232.31472 20.145957 231.50195 19.611328 C 230.68919 19.076699 229.79961 18.604566 228.82812 18.1875 C 226.88516 17.353368 224.6116 16.739224 221.95312 16.292969 C 219.29465 15.846714 216.25105 15.566648 212.76953 15.398438 C 209.28801 15.230227 205.36912 15.173828 200.95703 15.173828 L 127.18555 15.173828 L 127.18555 125.81445 L 239.87891 125.81445 z" transform="translate(197.42373,133.57627)"/>
  <path style="fill:#5884f4" d="M 15.878906 125.81445 L 15.878906 127.17383 L 15.878906 200.18164 C 15.878906 204.60271 15.935458 208.52772 16.103516 212.01172 C 16.271573 215.49572 16.550421 218.53854 16.996094 221.19531 C 17.441767 223.85208 18.053872 226.12312 18.886719 228.0625 C 19.303142 229.03219 19.774835 229.91758 20.308594 230.72852 C 20.842353 231.53945 21.438726 232.27549 22.103516 232.94141 C 22.768305 233.60732 23.501032 234.20366 24.310547 234.73828 C 25.120061 235.2729 26.004722 235.74505 26.972656 236.16211 C 28.908525 236.99622 31.176407 237.60845 33.828125 238.05469 C 35.020917 238.25541 36.597468 238.31868 37.951172 238.45703 L 127.18555 238.45703 L 127.18555 125.81445 L 15.878906 125.81445 z" transform="translate(197.42373,133.57627)"/>
  <path style="fill:#fdc92b" d="M 217.82227 238.45703 C 219.17861 238.31867 220.75732 238.25542 221.95312 238.05469 C 224.6116 237.60843 226.88516 236.99624 228.82812 236.16211 C 229.79961 235.74504 230.68919 235.27291 231.50195 234.73828 C 232.31472 234.20365 233.05126 233.60733 233.71875 232.94141 C 234.38624 232.27549 234.98387 231.53946 235.51953 230.72852 C 236.05519 229.91757 236.52804 229.03024 236.94531 228.06055 C 237.77985 226.12116 238.39237 223.85207 238.83398 221.19531 C 239.2756 218.53855 239.54689 215.49569 239.70312 212.01172 C 239.85936 208.52775 239.90053 204.60266 239.87891 200.18164 L 239.87891 127.17383 L 239.87891 125.81445 L 127.18555 125.81445 L 127.18555 238.45703 L 217.82227 238.45703 z" transform="translate(197.42373,133.57627)"/>
 </g>
</svg>
